dist/assets/img/questions/7/answers/2.svg

<svg width="572" height="272" viewBox="0 0 572 272" fill="none" xmlns="http://www.w3.org/2000/svg">
<g filter="url(#filter0_di_1495_79115)">
<path fill-rule="evenodd" clip-rule="evenodd" d="M87.2226 28C83.1534 28 79.7326 31.0545 79.2736 35.0978L64.9838 160.993C64.6692 163.765 62.9179 166.141 60.4678 167.474C51.9453 172.113 42.8197 179.403 40.0032 189.116C39.9832 189.185 40.0598 189.241 40.1197 189.201C42.7861 187.436 47.0637 184.605 52.3423 182.15C57.3518 179.821 62.3538 184.164 61.7307 189.653L59.2966 211.098C58.758 215.843 62.4699 220 67.2456 220H503.35C507.419 220 510.84 216.945 511.299 212.902L531.276 36.9023C531.814 32.1571 528.102 28 523.327 28H87.2226Z" fill="#FFF0CB"/>
</g>
<defs>
<filter id="filter0_di_1495_79115" x="0" y="0" width="571.328" height="272" filterUnits="userSpaceOnUse" color-interpolation-filters="sRGB">
<feFlood flood-opacity="0" result="BackgroundImageFix"/>
<feColorMatrix in="SourceAlpha" type="matrix" values="0 0 0 0 0 0 0 0 0 0 0 0 0 0 0 0 0 0 127 0" result="hardAlpha"/>
<feOffset dy="12"/>
<feGaussianBlur stdDeviation="20"/>
<feComposite in2="hardAlpha" operator="out"/>
<feColorMatrix type="matrix" values="0 0 0 0 1 0 0 0 0 1 0 0 0 0 1 0 0 0 1 0"/>
<feBlend mode="normal" in2="BackgroundImageFix" result="effect1_dropShadow_1495_79115"/>
<feBlend mode="normal" in="SourceGraphic" in2="effect1_dropShadow_1495_79115" result="shape"/>
<feColorMatrix in="SourceAlpha" type="matrix" values="0 0 0 0 0 0 0 0 0 0 0 0 0 0 0 0 0 0 127 0" result="hardAlpha"/>
<feOffset dy="-4"/>
<feGaussianBlur stdDeviation="4"/>
<feComposite in2="hardAlpha" operator="arithmetic" k2="-1" k3="1"/>
<feColorMatrix type="matrix" values="0 0 0 0 0.883659 0 0 0 0 0.635314 0 0 0 0 0.0558422 0 0 0 0.4 0"/>
<feBlend mode="normal" in2="shape" result="effect2_innerShadow_1495_79115"/>
</filter>
</defs>
</svg>

<svg width="572" height="272" viewBox="0 0 572 272" fill="none" xmlns="http://www.w3.org/2000/svg"><g filter="url(#filter0_di_1495_79115)"><path fill-rule="evenodd" clip-rule="evenodd" d="M87.223 28a8 8 0 00-7.95 7.098l-14.29 125.895c-.314 2.772-2.065 5.148-4.515 6.481-8.523 4.639-17.648 11.929-20.465 21.642a.077.077 0 00.117.085c2.666-1.765 6.944-4.596 12.222-7.051 5.01-2.329 10.012 2.014 9.389 7.503l-2.434 21.445c-.539 4.745 3.173 8.902 7.949 8.902H503.35a8 8 0 007.949-7.098l19.977-176c.538-4.745-3.174-8.902-7.949-8.902H87.223z" fill="#FFF0CB"/></g><defs><filter id="filter0_di_1495_79115" x="0" y="0" width="571.328" height="272" filterUnits="userSpaceOnUse" color-interpolation-filters="sRGB"><feFlood flood-opacity="0" result="BackgroundImageFix"/><feColorMatrix in="SourceAlpha" values="0 0 0 0 0 0 0 0 0 0 0 0 0 0 0 0 0 0 127 0" result="hardAlpha"/><feOffset dy="12"/><feGaussianBlur stdDeviation="20"/><feComposite in2="hardAlpha" operator="out"/><feColorMatrix values="0 0 0 0 1 0 0 0 0 1 0 0 0 0 1 0 0 0 1 0"/><feBlend in2="BackgroundImageFix" result="effect1_dropShadow_1495_79115"/><feBlend in="SourceGraphic" in2="effect1_dropShadow_1495_79115" result="shape"/><feColorMatrix in="SourceAlpha" values="0 0 0 0 0 0 0 0 0 0 0 0 0 0 0 0 0 0 127 0" result="hardAlpha"/><feOffset dy="-4"/><feGaussianBlur stdDeviation="4"/><feComposite in2="hardAlpha" operator="arithmetic" k2="-1" k3="1"/><feColorMatrix values="0 0 0 0 0.883659 0 0 0 0 0.635314 0 0 0 0 0.0558422 0 0 0 0.4 0"/><feBlend in2="shape" result="effect2_innerShadow_1495_79115"/></filter></defs></svg>
